X:1
T:Roll In My Sweet Baby's Arms
M:4/4
L:1/4
K:F
 A A2 G| F2 D C| F F3-| F4| A A2 G| F2 D C| C4-| C3 A/2A/2| A A2 G|\
 F2 F F| G F2 D| B,2 B, B,| C C2 C| A G2 F| F4-| F3 z|||
